lib/brands/logos/glitch.svg

<svg xmlns="http://www.w3.org/2000/svg" fill="none" aria-hidden="true" viewBox="0 0 197 69"><g id="Glitch"><g id="Group"><g id="Group_2"><path id="Vector" fill="url(#paint0_linear_93_14957)" fill-rule="evenodd" d="M26.873 10.9818C20.0447 9.61047 3.99004 16.6007 4.96779 24.4444C7.39675 25.1666 9.51197 26.0496 9.16628 26.9544H75.9805C76.3821 24.279 74.2829 22.2276 75.7033 19.9949C76.1517 19.2898 76.4928 18.4855 76.7301 17.6834V13.3423C76.6947 13.3104 76.6559 13.283 76.6149 13.2625C60.024 18.6315 68.081 17.4963 50.3743 13.2648C47.3018 9.40853 37.1034 6.61562 32.3493 6.30415C30.5238 6.30415 26.873 10.9818 26.873 10.9818Z" clip-rule="evenodd"/><path id="Vector_2" fill="url(#paint1_linear_93_14957)" fill-rule="evenodd" d="M48.8921 24.6724V26.726H9.20264C9.23915 27.3329 8.2363 27.9559 5.53809 28.5514C7.93397 31.5178 15.0064 34.3688 17.5175 34.7123C17.068 34.8058 16.5694 34.9724 16.0389 35.1994C24.0685 36.2103 33.5619 36.5525 38.2829 36.6518H53.8596C53.6918 36.6141 53.5196 36.5765 53.3416 36.5377C49.8767 35.8851 51.2617 36.3563 49.5766 35.3968C71.8834 30.0266 58.9594 30.8207 76.6147 34.7123C77.1863 33.6855 74.4482 31.1755 75.7031 27.9821C76.18 26.7671 76.0637 25.6855 75.8241 24.6724H48.8921Z" clip-rule="evenodd"/><path id="Vector_3" fill="url(#paint2_linear_93_14957)" fill-rule="evenodd" d="M33.3761 32.7729V34.8265C29.6465 34.7489 23.1993 34.7056 17.1115 34.8128C13.0898 35.9515 5.98545 42.021 4.96777 45.5909V47.0444C4.99972 47.1197 5.03737 47.1927 5.08186 47.2623C7.20393 47.8932 9.08641 48.6462 9.29861 49.43H39.1946V47.3764H75.8504C75.4671 45.6764 74.6902 44.1773 75.7033 42.5846C76.7449 40.3416 77.2332 38.8025 77.3005 37.7883V37.3376C77.0085 33.5658 68.8271 39.5704 64.2943 39.6183C59.1603 38.7044 60.1871 38.021 53.3417 36.5379C49.8768 35.8853 51.2619 36.3565 49.5768 35.397C53.8175 34.3759 56.7849 33.5784 58.9321 32.9817V32.7729H33.3761Z" clip-rule="evenodd"/><path id="Vector_4" fill="#974DFF" fill-rule="evenodd" d="M30.6379 16.5723H30.752C33.4867 21.4154 31.7446 25.1336 30.2956 29.9208C29.8872 30.8894 31.3612 31.639 31.7788 30.6053C32.9414 26.1581 34.7828 21.2694 32.5774 16.8005H32.8056C43.3623 16.8815 54.0457 18.7982 63.6098 23.4177C64.2453 23.5614 66.2898 25.1336 66.6902 23.874C62.0833 18.4251 44.1564 15.3219 36.5706 15.5444C36.2409 15.6071 35.4514 15.5067 34.5489 15.4075C33.8416 15.3287 33.0635 15.2512 32.3801 15.2512C31.1102 15.2512 30.1724 15.5227 30.6379 16.5723Z" clip-rule="evenodd"/><path id="Vector_5" fill="#F1A5FF" fill-rule="evenodd" d="M30.6378 16.5718H30.7519C32.4005 19.691 32.8238 23.5039 31.2082 26.7258H32.8055C33.6361 23.4891 33.9144 20.0207 32.4632 16.9141C43.1454 16.946 53.9828 18.695 63.6097 23.5313C64.2429 23.6431 66.4083 25.3601 66.6901 23.9876C61.8481 18.436 44.3719 15.3225 36.5705 15.5439C36.194 15.6157 35.4113 15.5108 34.5328 15.4047C33.8551 15.3237 33.1192 15.2415 32.4701 15.2415C31.2767 15.2415 30.3708 15.5165 30.6378 16.5718Z" clip-rule="evenodd"/><path id="Vector_6" fill="#974DFF" fill-rule="evenodd" d="M26.5307 17.1426H26.6448C28.8604 20.158 28.7623 23.8032 27.3293 27.0684C26.849 27.8625 28.0424 28.6565 28.4702 27.7529C29.2711 26.0633 29.8233 24.1534 29.8393 22.2766C29.8553 20.1648 28.8912 17.9869 27.7857 16.2299C27.6408 15.9686 27.4309 15.8614 27.2153 15.8614C26.6631 15.8614 26.0846 16.5665 26.5307 17.1426Z" clip-rule="evenodd"/><path id="Vector_7" fill="#F1A5FF" fill-rule="evenodd" d="M28.9264 26.7261C29.5881 23.9651 30.0787 21.0296 28.5841 18.3975C28.3754 17.9651 27.7593 16.717 27.7855 16.2298C27.3098 15.3491 26.0434 16.2253 26.5305 17.0285H26.6446C28.6731 19.9252 28.9264 23.535 27.4432 26.7261H28.9264Z" clip-rule="evenodd"/><path id="Vector_8" fill="#F1A5FF" fill-rule="evenodd" d="M26.5306 17.0286H26.6447C28.672 19.9253 28.9264 23.5362 27.4433 26.7262H28.9264C29.5882 23.9652 30.0788 21.0297 28.5842 18.3976C28.3754 17.9652 27.7582 16.7171 27.7856 16.2299C27.6441 15.9687 27.4342 15.8626 27.2208 15.8626C26.7131 15.8626 26.1883 16.4638 26.5306 17.0286Z" clip-rule="evenodd"/><path id="Vector_9" fill="url(#paint3_linear_93_14957)" fill-rule="evenodd" d="M39.0808 47.3761V49.4297H9.29889C9.47231 50.072 8.5208 50.736 5.65259 51.3692C11.1779 56.7383 18.0553 58.4336 24.1339 57.0737C25.0843 61.3577 33.0877 63.8095 38.3963 62.0936C38.4693 60.9972 38.2742 59.902 37.8258 58.8991C45.2451 60.1621 63.3511 54.469 64.2946 53.9933C65.1491 53.8347 67.7778 54.7736 70.3915 55.7137C73.3613 56.7816 76.3117 57.8483 76.6151 57.3019C77.1867 56.275 74.4486 53.7651 75.7036 50.5706C76.1622 49.4023 76.0721 48.3561 75.8507 47.3761H39.0808Z" clip-rule="evenodd"/><path id="Vector_10" fill="#373FFF" fill-rule="evenodd" d="M30.6379 39.3901H30.752C33.513 44.2617 31.6921 48.0267 30.2956 52.8527C29.8872 53.8224 31.3612 54.5709 31.7788 53.5372C33.027 49.1425 34.7349 44.2674 32.5774 39.8453L32.8056 39.7324C43.3589 39.8179 54.0548 41.5578 63.6098 46.2355C64.2453 46.3792 66.2898 47.9502 66.6902 46.6918C62.0833 41.2441 44.1564 38.1397 36.5706 38.3633C36.2409 38.4261 35.4525 38.3257 34.5512 38.2264C33.8427 38.1477 33.0635 38.069 32.3801 38.069C31.1102 38.069 30.1724 38.3416 30.6379 39.3901Z" clip-rule="evenodd"/><path id="Vector_11" fill="#F1A5FF" fill-rule="evenodd" d="M30.6376 39.3901H30.7517C32.3854 42.4762 32.8224 46.2423 31.208 49.43H32.8053C33.6416 46.1944 33.9142 42.7249 32.463 39.6183C43.1338 39.6548 53.9404 41.5681 63.6095 46.2355C64.2426 46.3792 66.2917 47.9514 66.6899 46.6918C62.0841 41.2441 44.156 38.1385 36.5702 38.3633C36.2405 38.4261 35.4533 38.3257 34.5509 38.2264C33.8424 38.1477 33.0631 38.069 32.3797 38.069C31.1099 38.069 30.1721 38.3416 30.6376 39.3901Z" clip-rule="evenodd"/><path id="Vector_12" fill="#373FFF" fill-rule="evenodd" d="M26.5306 39.9604H26.6447C28.8603 42.9758 28.7622 46.6209 27.3293 49.8862C26.8489 50.6802 28.0423 51.4743 28.4702 50.5707C29.2711 48.881 29.8233 46.9723 29.8392 45.0944C29.8837 42.9233 28.7999 40.7967 27.7856 38.9336C27.222 37.9421 25.756 39.1755 26.5306 39.9604Z" clip-rule="evenodd"/><path id="Vector_13" fill="#F1A5FF" fill-rule="evenodd" d="M28.9268 49.4299C29.2211 47.5623 29.9251 45.6649 29.4972 43.7254C29.4402 42.5971 26.6119 35.9057 26.3027 39.8464H26.645C28.6929 42.7431 28.9291 46.3472 27.4436 49.544L28.9268 49.4299Z" clip-rule="evenodd"/><path id="Vector_14" fill="#F1A5FF" fill-rule="evenodd" d="M26.3027 39.8454H26.645C28.6929 42.7433 28.9291 46.3473 27.4436 49.5441L28.9268 49.43C29.2211 47.5635 29.9251 45.6651 29.4972 43.7256C29.4527 42.8482 27.7368 38.6166 26.8275 38.6166C26.5663 38.6166 26.3723 38.9658 26.3027 39.8454Z" clip-rule="evenodd"/><path id="Vector_15" fill="black" fill-rule="evenodd" d="M17.2894 17.9409C18.9905 17.9409 20.3698 19.3202 20.3698 21.0213C20.3698 22.7224 18.9905 24.1017 17.2894 24.1017C15.5883 24.1017 14.209 22.7224 14.209 21.0213C14.209 19.3202 15.5883 17.9409 17.2894 17.9409Z" clip-rule="evenodd"/><path id="Vector_16" fill="white" fill-rule="evenodd" d="M14.095 20.7936C14.1577 18.9671 15.6888 17.5375 17.5154 17.6014C19.3419 17.6642 20.7715 19.1964 20.7076 21.0218C20.6471 22.8028 19.1856 24.2152 17.4036 24.2163C15.7071 24.3464 14.2262 23.0766 14.0961 21.3812C14.095 21.3755 14.095 21.3698 14.095 21.3641C14.273 22.6442 15.4332 23.5535 16.719 23.4177C18.168 23.4177 19.3431 22.2437 19.3431 20.7936C19.3431 19.3447 18.168 18.1696 16.719 18.1696C15.2701 18.1696 14.095 19.3447 14.095 20.7936Z" clip-rule="evenodd"/><path id="Vector_17" fill="white" fill-rule="evenodd" d="M15.4645 20.7936C15.9676 20.7936 16.3772 21.202 16.3772 21.7063C16.3772 22.2106 15.9676 22.619 15.4645 22.619C14.9602 22.619 14.5518 22.2106 14.5518 21.7063C14.5518 21.202 14.9602 20.7936 15.4645 20.7936Z" clip-rule="evenodd"/><path id="Vector_18" fill="black" fill-rule="evenodd" d="M17.2894 40.7599C18.9905 40.7599 20.3698 42.1381 20.3698 43.8392C20.3698 45.5403 18.9905 46.9196 17.2894 46.9196C15.5883 46.9196 14.209 45.5403 14.209 43.8392C14.209 42.1381 15.5883 40.7599 17.2894 40.7599Z" clip-rule="evenodd"/><path id="Vector_19" fill="white" fill-rule="evenodd" d="M14.0952 43.4967C14.158 41.6701 15.689 40.2406 17.5156 40.3045C19.3422 40.3672 20.7717 41.8994 20.7078 43.7249C20.6474 45.5069 19.1859 46.9182 17.4038 46.9194C15.7073 47.0494 14.2264 45.7808 14.0964 44.0842C14.0952 44.0785 14.0952 44.0728 14.0952 44.0671C14.2139 45.3849 15.3799 46.3569 16.6976 46.2371C16.7056 46.236 16.7113 46.2348 16.7193 46.2348C18.1682 46.2337 19.3422 45.0574 19.3411 43.6085C19.3399 42.1596 18.1636 40.9856 16.7136 40.9867C15.3103 40.989 14.1568 42.0945 14.0952 43.4967Z" clip-rule="evenodd"/><path id="Vector_20" fill="white" fill-rule="evenodd" d="M15.4645 43.612C15.9676 43.612 16.3772 44.0193 16.3772 44.5247C16.3772 45.0278 15.9676 45.4374 15.4645 45.4374C14.9602 45.4374 14.5518 45.0278 14.5518 44.5247C14.5518 44.0193 14.9602 43.612 15.4645 43.612Z" clip-rule="evenodd"/></g><path id="Vector_21" fill="black" fill-rule="evenodd" d="M100.233 19.3105C105.367 19.3105 109.473 21.3642 111.184 27.9813L105.709 29.4645C104.568 25.6996 102.857 24.2164 100.233 24.2164C97.6087 24.2164 93.9579 25.4714 93.9579 33.1154C93.9579 40.7605 97.6087 42.5848 100.461 42.5848C103.319 42.6601 105.755 40.5232 106.05 37.679H101.26V33.2295H111.642V46.8061H106.85V43.0423H106.736C105.482 45.7941 102.683 47.5101 99.6624 47.3766C91.562 47.3766 87.9111 41.331 87.9111 33.2295C87.9111 24.7868 92.5888 19.3105 100.233 19.3105ZM162.183 26.955C166.518 26.955 169.485 29.8072 170.626 32.8877L165.72 34.4849C164.922 31.9749 163.781 31.1763 162.069 31.1763C160.358 31.1763 158.19 33.2299 158.19 37.109C158.19 40.9869 159.331 43.0416 161.954 43.0416C164.579 43.0416 164.922 42.243 165.834 39.6189L170.74 41.3303C169.469 45.0507 165.881 47.474 161.954 47.2618C157.391 47.2618 152.372 44.6389 152.372 37.109C152.372 29.3509 157.848 26.955 162.183 26.955ZM145.298 20.6792V27.4116H150.318V31.6329H145.298V40.0744C145.298 42.128 145.869 42.8137 148.037 42.8137L149.975 42.5855V46.8068L146.097 47.1491C140.277 47.035 139.48 44.9802 139.48 41.3305V31.6329H136.171V27.4116H139.365V20.6792H145.298ZM122.48 19.7671V46.8063H116.661V19.7671H122.48ZM133.09 27.4111V46.8063H127.272V27.4111H133.09ZM179.638 19.7671V30.3775C181.207 28.2269 183.709 26.9548 186.371 26.9548C189.679 26.9548 192.075 28.552 192.075 32.6592V46.8063H186.141V34.4847C186.141 32.7733 185.458 31.8606 183.859 31.8606C182.265 31.9759 180.765 32.665 179.638 33.8001V46.8063H173.707V19.7671H179.638ZM133.204 19.9953V24.673H127.272V19.9953H133.204Z" clip-rule="evenodd"/></g></g><defs><linearGradient id="paint0_linear_93_14957" x1="39.8792" x2="39.8792" y1="6.30415" y2="26.8289" gradientUnits="userSpaceOnUse"><stop stop-color="#E459FF"/><stop offset="1" stop-color="#914DFF"/></linearGradient><linearGradient id="paint1_linear_93_14957" x1="22.3496" x2="43.3711" y1="30.2602" y2="44.2985" gradientUnits="userSpaceOnUse"><stop stop-color="#F0A5FF"/><stop offset="1" stop-color="#FF676B"/></linearGradient><linearGradient id="paint2_linear_93_14957" x1="41.1341" x2="41.1341" y1="32.4078" y2="49.9434" gradientUnits="userSpaceOnUse"><stop stop-color="#6E3BFF"/><stop offset="1" stop-color="#3633FF"/></linearGradient><linearGradient id="paint3_linear_93_14957" x1="34.4741" x2="39.8863" y1="54.6555" y2="61.1371" gradientUnits="userSpaceOnUse"><stop stop-color="#F0A5FF"/><stop offset="1" stop-color="#FF676B"/></linearGradient></defs></svg>

<svg xmlns="http://www.w3.org/2000/svg" fill="none" aria-hidden="true" viewBox="0 0 197 69"><g fill-rule="evenodd" clip-rule="evenodd"><path fill="url(#a)" d="M26.873 10.982C20.045 9.61 3.99 16.6 4.968 24.444c2.429.723 4.544 1.606 4.198 2.51h66.815c.401-2.675-1.698-4.726-.278-6.96a9.182 9.182 0 0 0 1.027-2.31v-4.342a.524.524 0 0 0-.115-.08c-16.591 5.37-8.534 4.234-26.24.003-3.073-3.856-13.272-6.65-18.026-6.96-1.825 0-5.476 4.677-5.476 4.677Z"/><path fill="url(#b)" d="M48.892 24.672v2.054H9.202c.037.607-.966 1.23-3.664 1.825 2.396 2.967 9.468 5.818 11.98 6.161-.45.094-.949.26-1.48.487 8.03 1.011 17.524 1.354 22.245 1.453H53.86c-.168-.038-.34-.075-.518-.114-3.465-.653-2.08-.182-3.765-1.141 22.306-5.37 9.382-4.576 27.038-.685.571-1.027-2.167-3.537-.912-6.73.477-1.215.36-2.296.121-3.31H48.892Z"/><path fill="url(#c)" d="M33.376 32.773v2.053a466.54 466.54 0 0 0-16.264-.013C13.09 35.952 5.984 42.02 4.967 45.59v1.453c.032.076.07.149.114.218 2.122.631 4.004 1.384 4.217 2.168h29.896v-2.054H75.85c-.383-1.7-1.16-3.199-.147-4.791 1.042-2.243 1.53-3.782 1.597-4.797v-.45c-.291-3.772-8.473 2.232-13.006 2.28-5.134-.914-4.107-1.597-10.952-3.08-3.465-.653-2.08-.181-3.765-1.141a269.28 269.28 0 0 0 9.355-2.415v-.21H33.376Z"/><path fill="#974DFF" d="M30.638 16.572h.114c2.735 4.843.993 8.562-.456 13.349-.409.968 1.065 1.718 1.483.684 1.162-4.447 3.004-9.336.798-13.805h.229c10.556.081 21.24 1.998 30.804 6.618.635.143 2.68 1.716 3.08.456-4.607-5.449-22.534-8.552-30.12-8.33-.33.063-1.119-.037-2.021-.136-.707-.08-1.486-.157-2.169-.157-1.27 0-2.208.272-1.742 1.321Z"/><path fill="#F1A5FF" d="M30.638 16.572h.114c1.649 3.119 2.072 6.932.456 10.154h1.598c.83-3.237 1.108-6.705-.343-9.812 10.682.032 21.52 1.781 31.147 6.617.633.112 2.798 1.83 3.08.457-4.842-5.552-22.318-8.665-30.12-8.444-.376.072-1.159-.033-2.037-.14-.678-.08-1.414-.162-2.063-.162-1.193 0-2.1.274-1.832 1.33Z"/><path fill="#974DFF" d="M26.53 17.143h.115c2.215 3.015 2.117 6.66.684 9.925-.48.794.713 1.588 1.141.685.801-1.69 1.353-3.6 1.37-5.476.015-2.112-.949-4.29-2.054-6.047-.145-.261-.355-.369-.57-.369-.553 0-1.131.706-.685 1.282Z"/><path fill="#F1A5FF" d="M28.926 26.726c.662-2.76 1.153-5.696-.342-8.328-.209-.433-.825-1.681-.799-2.168-.475-.88-1.742-.005-1.255.799h.115c2.028 2.896 2.281 6.506.798 9.697h1.483Z"/><path fill="#F1A5FF" d="M26.53 17.029h.115c2.027 2.896 2.281 6.507.798 9.697h1.483c.662-2.76 1.153-5.696-.342-8.328-.209-.433-.826-1.68-.798-2.168-.142-.261-.352-.367-.565-.367-.508 0-1.033.6-.69 1.166Z"/><path fill="url(#d)" d="M39.08 47.376v2.054H9.3c.173.642-.778 1.306-3.646 1.94 5.525 5.368 12.402 7.064 18.48 5.704.951 4.284 8.955 6.736 14.263 5.02a6.726 6.726 0 0 0-.57-3.195c7.42 1.263 25.525-4.43 26.469-4.906.854-.158 3.483.78 6.096 1.72 2.97 1.069 5.92 2.135 6.224 1.589.572-1.027-2.166-3.537-.911-6.731.458-1.169.368-2.215.147-3.195H39.08Z"/><path fill="#373FFF" d="M30.638 39.39h.114c2.761 4.872.94 8.637-.456 13.463-.409.97 1.065 1.718 1.483.684 1.248-4.395 2.956-9.27.798-13.692l.229-.113c10.553.086 21.249 1.826 30.804 6.504.635.143 2.68 1.714 3.08.456-4.607-5.448-22.534-8.552-30.12-8.329-.33.063-1.117-.037-2.019-.137-.708-.078-1.488-.157-2.17-.157-1.27 0-2.209.273-1.743 1.321Z"/><path fill="#F1A5FF" d="M30.638 39.39h.114c1.633 3.086 2.07 6.852.456 10.04h1.597c.837-3.236 1.11-6.705-.342-9.812 10.67.037 21.477 1.95 31.146 6.617.634.144 2.683 1.716 3.08.457-4.605-5.448-22.533-8.553-30.119-8.329-.33.063-1.117-.037-2.02-.137-.708-.078-1.487-.157-2.17-.157-1.27 0-2.208.273-1.742 1.321Z"/><path fill="#373FFF" d="M26.53 39.96h.115c2.215 3.016 2.117 6.66.684 9.926-.48.794.713 1.588 1.141.685.801-1.69 1.353-3.599 1.37-5.477.044-2.17-1.04-4.297-2.054-6.16-.564-.992-2.03.242-1.255 1.026Z"/><path fill="#F1A5FF" d="M28.927 49.43c.294-1.868.998-3.765.57-5.705-.057-1.128-2.885-7.82-3.194-3.879h.342c2.048 2.897 2.284 6.501.799 9.698l1.483-.114Z"/><path fill="#F1A5FF" d="M26.303 39.845h.342c2.048 2.898 2.284 6.502.799 9.7l1.483-.115c.294-1.867.998-3.765.57-5.704-.044-.878-1.76-5.11-2.67-5.11-.26 0-.455.35-.524 1.23Z"/><path fill="#000" d="M17.29 17.94a3.08 3.08 0 1 1-.001 6.162 3.08 3.08 0 0 1 0-6.161Z"/><path fill="#fff" d="M14.095 20.794a3.308 3.308 0 1 1 3.309 3.423 3.08 3.08 0 0 1-3.308-2.836l-.001-.017a2.396 2.396 0 0 0 2.624 2.054 2.624 2.624 0 1 0-2.624-2.624Z"/><path fill="#fff" d="M15.464 20.794a.913.913 0 1 1 0 1.826.913.913 0 0 1 0-1.826Z"/><path fill="#000" d="M17.29 40.76a3.08 3.08 0 1 1 0 6.16 3.08 3.08 0 0 1 0-6.16Z"/><path fill="#fff" d="M14.095 43.497a3.307 3.307 0 1 1 6.613.228 3.307 3.307 0 0 1-3.304 3.194 3.08 3.08 0 0 1-3.308-2.835v-.017a2.395 2.395 0 0 0 2.602 2.17l.021-.002a2.624 2.624 0 1 0-2.624-2.738Z"/><path fill="#fff" d="M15.464 43.612a.912.912 0 1 1 .001 1.825.912.912 0 0 1 0-1.825Z"/><path fill="#000" d="M100.233 19.31c5.134 0 9.24 2.054 10.951 8.671l-5.475 1.483c-1.141-3.764-2.852-5.248-5.476-5.248s-6.275 1.255-6.275 8.9c0 7.645 3.65 9.469 6.503 9.469a5.474 5.474 0 0 0 5.589-4.906h-4.79v-4.45h10.382v13.577h-4.792v-3.764h-.114a7.415 7.415 0 0 1-7.074 4.335c-8.1 0-11.75-6.046-11.75-14.148 0-8.442 4.677-13.918 12.321-13.918Zm61.95 7.645c4.335 0 7.302 2.852 8.443 5.933l-4.906 1.597c-.798-2.51-1.939-3.309-3.651-3.309-1.711 0-3.879 2.054-3.879 5.933 0 3.878 1.141 5.933 3.764 5.933 2.625 0 2.968-.799 3.88-3.423l4.906 1.711a8.783 8.783 0 0 1-8.786 5.932c-4.563 0-9.582-2.623-9.582-10.153 0-7.758 5.476-10.154 9.811-10.154Zm-16.885-6.276v6.733h5.02v4.22h-5.02v8.442c0 2.054.571 2.74 2.739 2.74l1.938-.228v4.22l-3.878.343c-5.82-.114-6.617-2.169-6.617-5.819v-9.697h-3.309v-4.221h3.194v-6.733h5.933Zm-22.818-.912v27.04h-5.819v-27.04h5.819Zm10.61 7.644v19.395h-5.818V27.411h5.818Zm46.548-7.644v10.61a8.335 8.335 0 0 1 6.733-3.422c3.308 0 5.704 1.597 5.704 5.704v14.147h-5.934V34.485c0-1.712-.683-2.624-2.282-2.624a6.623 6.623 0 0 0-4.221 1.94v13.005h-5.931V19.767h5.931Zm-46.434.228v4.678h-5.932v-4.678h5.932Z"/></g><defs><linearGradient id="a" x1="39.879" x2="39.879" y1="6.304" y2="26.829" gradientUnits="userSpaceOnUse"><stop stop-color="#E459FF"/><stop offset="1" stop-color="#914DFF"/></linearGradient><linearGradient id="b" x1="22.35" x2="43.371" y1="30.26" y2="44.298" gradientUnits="userSpaceOnUse"><stop stop-color="#F0A5FF"/><stop offset="1" stop-color="#FF676B"/></linearGradient><linearGradient id="c" x1="41.134" x2="41.134" y1="32.408" y2="49.943" gradientUnits="userSpaceOnUse"><stop stop-color="#6E3BFF"/><stop offset="1" stop-color="#3633FF"/></linearGradient><linearGradient id="d" x1="34.474" x2="39.886" y1="54.656" y2="61.137" gradientUnits="userSpaceOnUse"><stop stop-color="#F0A5FF"/><stop offset="1" stop-color="#FF676B"/></linearGradient></defs></svg>
